; generated by Slic3r 1.1.7 on 2014-11-23 at 15:01:29

; perimeters extrusion width = 0.50mm
; infill extrusion width = 0.52mm
; solid infill extrusion width = 0.52mm
; top infill extrusion width = 0.52mm

G21 ; set units to millimeters
M107
M104 S205 ; set temperature
G28 ; home all axes
G1 Z5 F5000 ; lift nozzle

M109 S205 ; wait for temperature to be reached
G90 ; use absolute coordinates
G92 E0
M82 ; use absolute distances for extrusion
G1 F1800.000 E-1.00000
G92 E0
G1 Z0.500 F7800.000
G1 X58.301 Y73.324 F7800.000
G1 E1.00000 F1800.000
G1 X60.476 Y72.463 E1.14774 F1080.000
G1 X61.889 Y72.317 E1.23742
G1 X137.889 Y72.317 E6.03648
G1 X140.195 Y72.714 E6.18422
G1 X142.235 Y73.860 E6.33196 F1080.000
G1 X143.774 Y75.622 E6.47971
G1 X144.635 Y77.797 E6.62745
G1 X144.782 Y79.210 E6.71713
G1 X144.782 Y120.790 E9.34277
G1 X144.385 Y123.096 E9.49051
G1 X143.239 Y125.136 E9.63825
G1 X141.477 Y126.676 E9.78599
G1 X139.302 Y127.537 E9.93373
G1 X137.889 Y127.683 E10.02341
G1 X61.889 Y127.683 E14.82247
G1 X59.583 Y127.286 E14.97022
G1 X57.543 Y126.140 E15.11796
G1 X56.004 Y124.378 E15.26570
G1 X55.143 Y122.203 E15.41344
G1 X54.996 Y120.790 E15.50312
G1 X54.996 Y79.210 E18.12876
G1 X55.393 Y76.904 E18.27650
G1 X56.539 Y74.864 E18.42424
G1 X58.244 Y73.374 E18.56725
G1 F1800.000 E17.56725
G92 E0
G1 X135.604 Y118.505 F7800.000
G1 E1.00000 F1800.000
G1 X64.174 Y118.505 E5.51044 F540.000
G1 X64.174 Y81.495 E7.84745
G1 X135.604 Y81.495 E12.35789
G1 X135.604 Y118.430 E14.69017
G1 X136.496 Y119.398 F7800.000
G1 X63.282 Y119.398 E19.31334 F540.000
G1 X63.282 Y80.602 E21.76310
G1 X136.496 Y80.602 E26.38628
G1 X136.496 Y119.323 E28.83130
G1 X137.389 Y120.290 F7800.000
G1 X62.389 Y120.290 E33.56721 F378.000
G1 X62.389 Y79.710 E36.12971
G1 X137.389 Y79.710 E40.86563
G1 X137.389 Y120.215 E43.42339
G1 X136.956 Y120.040 F7800.000
G1 X134.936 Y82.122 F7800.000
G1 X134.976 Y82.162 E43.42696 F1080.000
G1 X134.976 Y83.437 E43.50749
G1 X133.661 Y82.122 E43.62495
G1 X132.386 Y82.122 E43.70548
G1 X134.976 Y84.713 E43.93682
G1 X134.976 Y85.988 E44.01735
G1 X131.110 Y82.122 E44.36258
G1 X129.835 Y82.122 E44.44311
G1 X134.976 Y87.263 E44.90223
G1 X134.976 Y88.539 E44.98276
G1 X128.560 Y82.122 E45.55577
G1 X127.285 Y82.122 E45.63630
G1 X134.976 Y89.814 E46.32319
G1 X134.976 Y91.089 E46.40372
G1 X126.009 Y82.122 E47.20450
G1 X124.734 Y82.122 E47.28503
G1 X134.976 Y92.365 E48.19969
G1 X134.976 Y93.640 E48.28022
G1 X123.459 Y82.122 E49.30877
G1 X122.183 Y82.122 E49.38930
G1 X134.976 Y94.915 E50.53174
G1 X134.976 Y96.191 E50.61227
G1 X120.908 Y82.122 E51.86859
G1 X119.633 Y82.122 E51.94912
G1 X134.976 Y97.466 E53.31933
G1 X134.976 Y98.741 E53.39986
G1 X118.357 Y82.122 E54.88396
G1 X117.082 Y82.122 E54.96449
G1 X134.976 Y100.016 E56.56247
G1 X134.976 Y101.292 E56.64300
G1 X115.807 Y82.122 E58.35487
G1 X114.531 Y82.122 E58.43540
G1 X134.976 Y102.567 E60.26116
G1 X134.976 Y103.842 E60.34169
G1 X113.256 Y82.122 E62.28133
G1 X111.981 Y82.122 E62.36186
G1 X134.976 Y105.118 E64.41539
G1 X134.976 Y106.393 E64.49592
G1 X110.706 Y82.122 E66.66334
G1 X109.430 Y82.122 E66.74387
G1 X134.976 Y107.668 E69.02517
G1 X134.976 Y108.944 E69.10570
G1 X108.155 Y82.122 E71.50089
G1 X106.880 Y82.122 E71.58142
G1 X134.976 Y110.219 E74.09050
G1 X134.976 Y111.494 E74.17103
G1 X105.604 Y82.122 E76.79399
G1 X104.329 Y82.122 E76.87452
G1 X134.976 Y112.770 E79.61137
G1 X134.976 Y114.045 E79.69190
G1 X103.054 Y82.122 E82.54263
G1 X101.778 Y82.122 E82.62316
G1 X134.976 Y115.320 E85.58779
G1 X134.976 Y116.595 E85.66832
G1 X100.503 Y82.122 E88.74682
G1 X99.228 Y82.122 E88.82735
G1 X134.960 Y117.854 E92.01828
G1 X133.708 Y117.878 E92.09734
G1 X97.952 Y82.122 E95.29036
G1 X96.677 Y82.122 E95.37089
G1 X132.433 Y117.878 E98.56391
G1 X131.158 Y117.878 E98.64444
G1 X95.402 Y82.122 E101.83747
G1 X94.127 Y82.122 E101.91800
G1 X129.882 Y117.878 E105.11102
G1 X128.607 Y117.878 E105.19155
G1 X92.851 Y82.122 E108.38458
G1 X91.576 Y82.122 E108.46511
G1 X127.332 Y117.878 E111.65813
G1 X126.056 Y117.878 E111.73866
G1 X90.301 Y82.122 E114.93168
G1 X89.025 Y82.122 E115.01221
G1 X124.781 Y117.878 E118.20524
G1 X123.506 Y117.878 E118.28577
G1 X87.750 Y82.122 E121.47879
G1 X86.475 Y82.122 E121.55932
G1 X122.230 Y117.878 E124.75235
G1 X120.955 Y117.878 E124.83288
G1 X85.199 Y82.122 E128.02590
G1 X83.924 Y82.122 E128.10643
G1 X119.680 Y117.878 E131.29945
G1 X118.404 Y117.878 E131.37998
G1 X82.649 Y82.122 E134.57301
G1 X81.373 Y82.122 E134.65354
G1 X117.129 Y117.878 E137.84656
G1 X115.854 Y117.878 E137.92709
G1 X80.098 Y82.122 E141.12012
G1 X78.823 Y82.122 E141.20065
G1 X114.579 Y117.878 E144.39367
G1 X113.303 Y117.878 E144.47420
G1 X77.548 Y82.122 E147.66723
G1 X76.272 Y82.122 E147.74776
G1 X112.028 Y117.878 E150.94078
G1 X110.753 Y117.878 E151.02131
G1 X74.997 Y82.122 E154.21433
G1 X73.722 Y82.122 E154.29486
G1 X109.477 Y117.878 E157.48789
G1 X108.202 Y117.878 E157.56842
G1 X72.446 Y82.122 E160.76144
G1 X71.171 Y82.122 E160.84197
G1 X106.927 Y117.878 E164.03500
G1 X105.651 Y117.878 E164.11553
G1 X69.896 Y82.122 E167.30855
G1 X68.620 Y82.122 E167.38908
G1 X104.376 Y117.878 E170.58210
G1 X103.101 Y117.878 E170.66263
G1 X67.345 Y82.122 E173.85566
G1 X66.070 Y82.122 E173.93619
G1 X101.825 Y117.878 E177.12921
G1 X100.550 Y117.878 E177.20974
G1 X64.818 Y82.146 E180.40067
G1 X64.802 Y83.405 E180.48016
G1 X99.275 Y117.878 E183.55867
G1 X98.000 Y117.878 E183.63920
G1 X64.802 Y84.680 E186.60382
G1 X64.802 Y85.955 E186.68435
G1 X96.724 Y117.878 E189.53509
G1 X95.449 Y117.878 E189.61562
G1 X64.802 Y87.230 E192.35247
G1 X64.802 Y88.506 E192.43300
G1 X94.174 Y117.878 E195.05596
G1 X92.898 Y117.878 E195.13649
G1 X64.802 Y89.781 E197.64556
G1 X64.802 Y91.056 E197.72609
G1 X91.623 Y117.878 E200.12128
G1 X90.348 Y117.878 E200.20181
G1 X64.802 Y92.332 E202.48312
G1 X64.802 Y93.607 E202.56364
G1 X89.072 Y117.878 E204.73106
G1 X87.797 Y117.878 E204.81159
G1 X64.802 Y94.882 E206.86512
G1 X64.802 Y96.158 E206.94565
G1 X86.522 Y117.878 E208.88529
G1 X85.246 Y117.878 E208.96582
G1 X64.802 Y97.433 E210.79158
G1 X64.802 Y98.708 E210.87211
G1 X83.971 Y117.878 E212.58398
G1 X82.696 Y117.878 E212.66451
G1 X64.802 Y99.984 E214.26249
G1 X64.802 Y101.259 E214.34302
G1 X81.421 Y117.878 E215.82712
G1 X80.145 Y117.878 E215.90765
G1 X64.802 Y102.534 E217.27786
G1 X64.802 Y103.809 E217.35839
G1 X78.870 Y117.878 E218.61471
G1 X77.595 Y117.878 E218.69524
G1 X64.802 Y105.085 E219.83768
G1 X64.802 Y106.360 E219.91821
G1 X76.319 Y117.878 E220.94676
G1 X75.044 Y117.878 E221.02729
G1 X64.802 Y107.635 E221.94196
G1 X64.802 Y108.911 E222.02249
G1 X73.769 Y117.878 E222.82326
G1 X72.493 Y117.878 E222.90379
G1 X64.802 Y110.186 E223.59068
G1 X64.802 Y111.461 E223.67121
G1 X71.218 Y117.878 E224.24422
G1 X69.943 Y117.878 E224.32475
G1 X64.802 Y112.737 E224.78387
G1 X64.802 Y114.012 E224.86440
G1 X68.667 Y117.878 E225.20963
G1 X67.392 Y117.878 E225.29016
G1 X64.802 Y115.287 E225.52150
G1 X64.802 Y116.563 E225.60203
G1 X66.117 Y117.878 E225.71949
G1 X64.842 Y117.878 E225.80002
G1 X64.802 Y117.838 E225.80359
M104 S200 ; set temperature
G1 F1800.000 E224.80359
G92 E0
G1 Z0.900 F7800.000
G1 X136.639 Y119.540 F7800.000
G1 E1.00000 F1800.000
G1 X63.139 Y119.540 E3.07962 F1800.000
G1 X63.139 Y80.460 E4.18539
G1 X136.639 Y80.460 E6.26501
G1 X136.639 Y119.465 E7.36865
G1 X137.139 Y120.040 F7800.000
G1 X62.639 Y120.040 E9.47657 F1800.000
G1 X62.639 Y79.960 E10.61062
G1 X137.139 Y79.960 E12.71854
G1 X137.139 Y119.965 E13.85047
G1 X137.639 Y120.540 F7800.000
G1 X62.139 Y120.540 E15.98669 F1260.000
G1 X62.139 Y79.460 E17.14904
G1 X137.639 Y79.460 E19.28525
G1 X137.639 Y120.465 E20.44548
G1 X137.206 Y120.290 F7800.000
G1 X136.292 Y119.154 F7800.000
G1 X136.252 Y119.194 E20.44714 F3600.000
G1 X135.516 Y119.194 E20.46878
G1 X136.292 Y118.418 E20.50104
G1 X136.292 Y117.682 E20.52268
G1 X134.780 Y119.194 E20.58554
G1 X134.045 Y119.194 E20.60718
G1 X136.292 Y116.946 E20.70065
G1 X136.292 Y116.210 E20.72228
G1 X133.309 Y119.194 E20.84635
G1 X132.573 Y119.194 E20.86799
G1 X136.292 Y115.474 E21.02265
G1 X136.292 Y114.738 E21.04429
G1 X131.837 Y119.194 E21.22956
G1 X131.101 Y119.194 E21.25120
G1 X136.292 Y114.003 E21.46706
G1 X136.292 Y113.267 E21.48870
G1 X130.365 Y119.194 E21.73517
G1 X129.629 Y119.194 E21.75681
G1 X136.292 Y112.531 E22.03388
G1 X136.292 Y111.795 E22.05552
G1 X128.894 Y119.194 E22.36318
G1 X128.158 Y119.194 E22.38482
G1 X136.292 Y111.059 E22.72309
G1 X136.292 Y110.323 E22.74473
G1 X127.422 Y119.194 E23.11360
G1 X126.686 Y119.194 E23.13524
G1 X136.292 Y109.587 E23.53471
G1 X136.292 Y108.852 E23.55635
G1 X125.950 Y119.194 E23.98642
G1 X125.214 Y119.194 E24.00806
G1 X136.292 Y108.116 E24.46873
G1 X136.292 Y107.380 E24.49037
G1 X124.478 Y119.194 E24.98164
G1 X123.743 Y119.194 E25.00328
G1 X136.292 Y106.644 E25.52515
G1 X136.292 Y105.908 E25.54679
G1 X123.007 Y119.194 E26.09926
G1 X122.271 Y119.194 E26.12090
G1 X136.292 Y105.172 E26.70398
G1 X136.292 Y104.437 E26.72561
G1 X121.535 Y119.194 E27.33929
G1 X120.799 Y119.194 E27.36093
G1 X136.292 Y103.701 E28.00520
G1 X136.292 Y102.965 E28.02684
G1 X120.063 Y119.194 E28.70172
G1 X119.328 Y119.194 E28.72335
G1 X136.292 Y102.229 E29.42883
G1 X136.292 Y101.493 E29.45047
G1 X118.592 Y119.194 E30.18655
G1 X117.856 Y119.194 E30.20818
G1 X136.292 Y100.757 E30.97486
G1 X136.292 Y100.021 E30.99650
G1 X117.120 Y119.194 E31.79378
G1 X116.384 Y119.194 E31.81542
G1 X136.292 Y99.286 E32.64330
G1 X136.292 Y98.550 E32.66493
G1 X115.648 Y119.194 E33.52341
G1 X114.912 Y119.194 E33.54505
G1 X136.292 Y97.814 E34.43413
G1 X136.292 Y97.078 E34.45577
G1 X114.177 Y119.194 E35.37545
G1 X113.441 Y119.194 E35.39709
G1 X136.292 Y96.342 E36.34737
G1 X136.292 Y95.606 E36.36901
G1 X112.705 Y119.194 E37.34989
G1 X111.969 Y119.194 E37.37153
G1 X136.292 Y94.870 E38.38301
G1 X136.292 Y94.135 E38.40465
G1 X111.233 Y119.194 E39.44673
G1 X110.497 Y119.194 E39.46837
G1 X136.292 Y93.399 E40.54105
G1 X136.292 Y92.663 E40.56269
G1 X109.762 Y119.194 E41.66598
G1 X109.026 Y119.194 E41.68761
G1 X136.292 Y91.927 E42.82150
G1 X136.292 Y91.191 E42.84314
G1 X108.290 Y119.194 E44.00762
G1 X107.554 Y119.194 E44.02926
G1 X136.292 Y90.455 E45.22435
G1 X136.292 Y89.720 E45.24598
G1 X106.818 Y119.194 E46.47167
G1 X106.082 Y119.194 E46.49331
G1 X136.292 Y88.984 E47.74960
G1 X136.292 Y88.248 E47.77123
G1 X105.346 Y119.194 E49.05812
G1 X104.611 Y119.194 E49.07976
G1 X136.292 Y87.512 E50.39725
G1 X136.292 Y86.776 E50.41889
G1 X103.875 Y119.194 E51.76698
G1 X103.139 Y119.194 E51.78861
G1 X136.292 Y86.040 E53.16730
G1 X136.292 Y85.304 E53.18894
G1 X102.403 Y119.194 E54.59823
G1 X101.667 Y119.194 E54.61987
G1 X136.292 Y84.569 E56.05976
G1 X136.292 Y83.833 E56.08140
G1 X100.931 Y119.194 E57.55189
G1 X100.195 Y119.194 E57.57353
G1 X136.292 Y83.097 E59.07462
G1 X136.292 Y82.361 E59.09626
G1 X99.460 Y119.194 E60.62795
G1 X98.724 Y119.194 E60.64959
G1 X136.292 Y81.625 E62.21188
G1 X136.292 Y80.889 E62.23352
G1 X97.988 Y119.194 E63.82641
G1 X97.252 Y119.194 E63.84805
G1 X135.639 Y80.806 E65.44439
G1 X134.903 Y80.806 E65.46603
G1 X96.516 Y119.194 E67.06237
G1 X95.780 Y119.194 E67.08401
G1 X134.167 Y80.806 E68.68035
G1 X133.432 Y80.806 E68.70198
G1 X95.045 Y119.194 E70.29832
G1 X94.309 Y119.194 E70.31996
G1 X132.696 Y80.806 E71.91630
G1 X131.960 Y80.806 E71.93794
G1 X93.573 Y119.194 E73.53428
G1 X92.837 Y119.194 E73.55592
G1 X131.224 Y80.806 E75.15225
G1 X130.488 Y80.806 E75.17389
G1 X92.101 Y119.194 E76.77023
G1 X91.365 Y119.194 E76.79187
G1 X129.752 Y80.806 E78.38821
G1 X129.016 Y80.806 E78.40985
G1 X90.629 Y119.194 E80.00619
G1 X89.894 Y119.194 E80.02783
G1 X128.281 Y80.806 E81.62416
G1 X127.545 Y80.806 E81.64580
G1 X89.158 Y119.194 E83.24214
G1 X88.422 Y119.194 E83.26378
G1 X126.809 Y80.806 E84.86012
G1 X126.073 Y80.806 E84.88176
G1 X87.686 Y119.194 E86.47810
G1 X86.950 Y119.194 E86.49973
G1 X125.337 Y80.806 E88.09607
G1 X124.601 Y80.806 E88.11771
G1 X86.214 Y119.194 E89.71405
G1 X85.478 Y119.194 E89.73569
G1 X123.865 Y80.806 E91.33203
G1 X123.130 Y80.806 E91.35367
G1 X84.743 Y119.194 E92.95001
G1 X84.007 Y119.194 E92.97164
G1 X122.394 Y80.806 E94.56798
G1 X121.658 Y80.806 E94.58962
G1 X83.271 Y119.194 E96.18596
G1 X82.535 Y119.194 E96.20760
G1 X120.922 Y80.806 E97.80394
G1 X120.186 Y80.806 E97.82558
G1 X81.799 Y119.194 E99.42192
G1 X81.063 Y119.194 E99.44355
G1 X119.450 Y80.806 E101.03989
G1 X118.715 Y80.806 E101.06153
G1 X80.328 Y119.194 E102.65787
G1 X79.592 Y119.194 E102.67951
G1 X117.979 Y80.806 E104.27585
G1 X117.243 Y80.806 E104.29749
G1 X78.856 Y119.194 E105.89383
G1 X78.120 Y119.194 E105.91546
G1 X116.507 Y80.806 E107.51180
G1 X115.771 Y80.806 E107.53344
G1 X77.384 Y119.194 E109.12978
G1 X76.648 Y119.194 E109.15142
G1 X115.035 Y80.806 E110.74776
G1 X114.299 Y80.806 E110.76940
G1 X75.912 Y119.194 E112.36574
G1 X75.177 Y119.194 E112.38737
G1 X113.564 Y80.806 E113.98371
G1 X112.828 Y80.806 E114.00535
G1 X74.441 Y119.194 E115.60169
G1 X73.705 Y119.194 E115.62333
G1 X112.092 Y80.806 E117.21967
G1 X111.356 Y80.806 E117.24131
G1 X72.969 Y119.194 E118.83765
G1 X72.233 Y119.194 E118.85928
G1 X110.620 Y80.806 E120.45562
G1 X109.884 Y80.806 E120.47726
G1 X71.497 Y119.194 E122.07360
G1 X70.761 Y119.194 E122.09524
G1 X109.149 Y80.806 E123.69158
G1 X108.413 Y80.806 E123.71322
G1 X70.026 Y119.194 E125.30956
G1 X69.290 Y119.194 E125.33119
G1 X107.677 Y80.806 E126.92753
G1 X106.941 Y80.806 E126.94917
G1 X68.554 Y119.194 E128.54551
G1 X67.818 Y119.194 E128.56715
G1 X106.205 Y80.806 E130.16349
G1 X105.469 Y80.806 E130.18513
G1 X67.082 Y119.194 E131.78146
G1 X66.346 Y119.194 E131.80310
G1 X104.733 Y80.806 E133.39944
G1 X103.998 Y80.806 E133.42108
G1 X65.611 Y119.194 E135.01742
G1 X64.875 Y119.194 E135.03906
G1 X103.262 Y80.806 E136.63540
G1 X102.526 Y80.806 E136.65704
G1 X64.139 Y119.194 E138.25337
G1 X63.486 Y119.111 E138.27273
G1 X101.790 Y80.806 E139.86562
G1 X101.054 Y80.806 E139.88726
G1 X63.486 Y118.375 E141.44955
G1 X63.486 Y117.639 E141.47119
G1 X100.318 Y80.806 E143.00289
G1 X99.582 Y80.806 E143.02452
G1 X63.486 Y116.903 E144.52562
G1 X63.486 Y116.167 E144.54725
G1 X98.847 Y80.806 E146.01774
G1 X98.111 Y80.806 E146.03938
G1 X63.486 Y115.431 E147.47927
G1 X63.486 Y114.696 E147.50091
G1 X97.375 Y80.806 E148.91020
G1 X96.639 Y80.806 E148.93184
G1 X63.486 Y113.960 E150.31053
G1 X63.486 Y113.224 E150.33217
G1 X95.903 Y80.806 E151.68026
G1 X95.167 Y80.806 E151.70189
G1 X63.486 Y112.488 E153.01938
G1 X63.486 Y111.752 E153.04102
G1 X94.432 Y80.806 E154.32791
G1 X93.696 Y80.806 E154.34955
G1 X63.486 Y111.016 E155.60583
G1 X63.486 Y110.280 E155.62747
G1 X92.960 Y80.806 E156.85316
G1 X92.224 Y80.806 E156.87480
G1 X63.486 Y109.545 E158.06988
G1 X63.486 Y108.809 E158.09152
G1 X91.488 Y80.806 E159.25601
G1 X90.752 Y80.806 E159.27764
G1 X63.486 Y108.073 E160.41153
G1 X63.486 Y107.337 E160.43317
G1 X90.016 Y80.806 E161.53645
G1 X89.281 Y80.806 E161.55809
G1 X63.486 Y106.601 E162.63077
G1 X63.486 Y105.865 E162.65241
G1 X88.545 Y80.806 E163.69449
G1 X87.809 Y80.806 E163.71613
G1 X63.486 Y105.130 E164.72761
G1 X63.486 Y104.394 E164.74925
G1 X87.073 Y80.806 E165.73013
G1 X86.337 Y80.806 E165.75177
G1 X63.486 Y103.658 E166.70205
G1 X63.486 Y102.922 E166.72369
G1 X85.601 Y80.806 E167.64337
G1 X84.865 Y80.806 E167.66501
G1 X63.486 Y102.186 E168.55409
G1 X63.486 Y101.450 E168.57573
G1 X84.130 Y80.806 E169.43421
G1 X83.394 Y80.806 E169.45585
G1 X63.486 Y100.714 E170.28373
G1 X63.486 Y99.979 E170.30536
G1 X82.658 Y80.806 E171.10264
G1 X81.922 Y80.806 E171.12428
G1 X63.486 Y99.243 E171.89096
G1 X63.486 Y98.507 E171.91260
G1 X81.186 Y80.806 E172.64867
G1 X80.450 Y80.806 E172.67031
G1 X63.486 Y97.771 E173.37579
G1 X63.486 Y97.035 E173.39743
G1 X79.715 Y80.806 E174.07230
G1 X78.979 Y80.806 E174.09394
G1 X63.486 Y96.299 E174.73822
G1 X63.486 Y95.563 E174.75985
G1 X78.243 Y80.806 E175.37353
G1 X77.507 Y80.806 E175.39517
G1 X63.486 Y94.828 E175.97824
G1 X63.486 Y94.092 E175.99988
G1 X76.771 Y80.806 E176.55235
G1 X76.035 Y80.806 E176.57399
G1 X63.486 Y93.356 E177.09586
G1 X63.486 Y92.620 E177.11750
G1 X75.299 Y80.806 E177.60877
G1 X74.564 Y80.806 E177.63041
G1 X63.486 Y91.884 E178.09108
